X: 1
T:Granny Won't Your Dog Bite
C:
S:Old Time, from Ruthie Dornfeld
Z:
M:C|
L:1/8
K:AMix
"A"A2AA A,CEC|"D"DEFD "A"E2CE| "D"DEFD "A"E2EE|"D"DEFD "E"EF^GE|
"A"A2AA A,CEC| "D"DEFD "A"E2EE|"E"e3d cBAc|1 BA^GB "A"A2 E^G:|[2 BA^GB "A"A4||
|:"A"e3d cAcd| eAfA "G"gAfA|"A"efed cABA |"A"a3a- "G"aged|
"A"e2 (e2 e)dcd| eAfA "G"gAfA| "E"efed cBAc|"E"BA^GB "A"A4:|]
%%text 04/23/08 

#include "LeftHeader.h"
%%text Set 92 (NEFFA 08 Jigs-to-reel Set)
%%scale .8
